X: 28880
T: Mystery Inch, The
R: jig
M: 6/8
K: Amajor
|:Fca gec|efa ecB|~A3 ecA|BcA BAG|
Fca gec|eff ecB|ABc eag|1 bge cef:|2 bge cBA||
D2c BAE|cBA F2c|Bce ~e3|feB cAF|
DAc BAF|EAc BAF|GAe gbg|ece fcB|
AFE DcB|AFE cBA|FAc ~e3|feB cAF|
DAc BAF|EAc BAF|GAe gbg|ece fcA||

